X:215 
T:Traver's Reel  
B:CRE3.099 (RÃÂÃÂÃÂÃÂ­l Threabhair)
F:file ID: cre.3/215trav
R:reel
Q:180
M:C
L:1/8
K:Am
A2BA eABA|~A2BG AGEG|~A2 B2 eadB|gedB GBdB|
A2B2 eABA|A2BG AGE2| cBcA BGdB|GAAG E^FG2||
(3Bcd e^f gedB|GBAG ged2|(3Bcd e^f ~g3b|~a2^fa gfed|
(3Bcd e^f gedB|GBAG GEd2|cBcA BGdB|GAAG E^FG2||A8||

%%%

